packages/foundations/assets/icons/functional/images/social/crown.svg

<svg xmlns="http://www.w3.org/2000/svg" width="32" height="32" fill="none"><path fill="#1A1C1F" fill-rule="evenodd" d="M15.6 4.101a1.2 1.2 0 0 0-.327.225c-.063.07-1.116 1.731-2.34 3.692-1.695 2.715-2.246 3.559-2.313 3.54-.048-.013-1.701-1.034-3.674-2.268-4.009-2.507-3.844-2.425-4.36-2.172-.369.181-.572.491-.57.871.004.673 1.652 10.59 1.881 11.32.182.582.651 1.12 1.235 1.417.589.299.08.286 10.847.287 6.532 0 10.025-.018 10.213-.054.897-.17 1.736-.934 1.961-1.786.032-.117.203-1.149.382-2.293a627 627 0 0 1 1.352-8.146c.134-.763.129-.928-.041-1.256-.165-.319-.658-.531-1.037-.446-.132.03-1.585.906-3.846 2.319l-3.633 2.272-.178-.278c-.097-.153-1.106-1.766-2.242-3.585s-2.117-3.364-2.181-3.434c-.155-.17-.5-.324-.729-.324a1.2 1.2 0 0 0-.4.099m2.529 6.197c1.325 2.12 2.164 3.41 2.268 3.49.283.216.77.265 1.05.104.04-.023 1.432-.89 3.094-1.927a270 270 0 0 1 3.043-1.885c.02 0-.214 1.484-1.108 7.033-.222 1.374-.269 1.584-.382 1.72l-.13.154h-9.935c-9.896 0-9.935-.001-10.072-.108a.6.6 0 0 1-.166-.2c-.054-.177-1.369-8.456-1.353-8.523.009-.04 1.258.709 3.082 1.85 1.686 1.054 3.156 1.941 3.266 1.971.247.066.582-.012.818-.191.104-.079.939-1.364 2.267-3.488C15.027 8.447 15.985 6.933 16 6.933s.973 1.514 2.129 3.365M9.627 22.582c-.625.277-.809 1.097-.358 1.595.239.265.76.38 1.114.246.479-.18.729-.762.554-1.291-.157-.478-.833-.762-1.31-.55m6 .007c-.533.239-.76.853-.504 1.358.337.665 1.305.719 1.717.096.2-.303.208-.788.017-1.066-.28-.409-.811-.576-1.23-.388m6-.007c-.625.277-.809 1.097-.358 1.595.239.265.76.38 1.114.246.479-.18.729-.762.554-1.291-.157-.478-.833-.762-1.31-.55m-16.747.431a3 3 0 0 1-.199.05c-.218.048-.503.325-.602.586-.075.196-.085.401-.068 1.318.019.973.034 1.118.142 1.392a2.75 2.75 0 0 0 1.494 1.493l.3.121 9.893.015c6.747.009 9.979-.004 10.163-.042.682-.141 1.398-.676 1.698-1.268.249-.492.299-.803.299-1.864 0-1.042-.036-1.235-.283-1.498-.438-.47-1.242-.366-1.575.203-.136.232-.142.277-.161 1.201-.01.528-.043 1.004-.071 1.058-.137.258.234.249-9.91.249-10.191 0-9.771.011-9.916-.259-.034-.063-.058-.444-.059-.924-.001-1.166-.098-1.478-.523-1.691-.197-.099-.523-.173-.622-.14"/></svg>

<svg width="32" height="32" viewBox="0 0 32 32" fill="none" xmlns="http://www.w3.org/2000/svg"><path d="M15.600 4.101 C 15.483 4.155,15.335 4.256,15.273 4.326 C 15.210 4.396,14.157 6.057,12.933 8.018 C 11.238 10.733,10.687 11.577,10.620 11.558 C 10.572 11.545,8.919 10.524,6.946 9.290 C 2.937 6.783,3.102 6.865,2.586 7.118 C 2.217 7.299,2.014 7.609,2.016 7.989 C 2.020 8.662,3.668 18.579,3.897 19.309 C 4.079 19.891,4.548 20.429,5.132 20.726 C 5.721 21.025,5.212 21.012,15.979 21.013 C 22.511 21.013,26.004 20.995,26.192 20.959 C 27.089 20.789,27.928 20.025,28.153 19.173 C 28.185 19.056,28.356 18.024,28.535 16.880 C 28.826 15.016,29.547 10.672,29.887 8.734 C 30.021 7.971,30.016 7.806,29.846 7.478 C 29.681 7.159,29.188 6.947,28.809 7.032 C 28.677 7.062,27.224 7.938,24.963 9.351 L 21.330 11.623 21.152 11.345 C 21.055 11.192,20.046 9.579,18.910 7.760 C 17.774 5.941,16.793 4.396,16.729 4.326 C 16.574 4.156,16.229 4.002,16.000 4.002 C 15.897 4.002,15.717 4.047,15.600 4.101 M18.129 10.298 C 19.454 12.418,20.293 13.708,20.397 13.788 C 20.680 14.004,21.167 14.053,21.447 13.892 C 21.487 13.869,22.879 13.002,24.541 11.965 C 26.202 10.928,27.572 10.080,27.584 10.080 C 27.604 10.080,27.370 11.564,26.476 17.113 C 26.254 18.487,26.207 18.697,26.094 18.833 L 25.964 18.987 16.029 18.987 C 6.133 18.987,6.094 18.986,5.957 18.879 C 5.881 18.819,5.807 18.729,5.791 18.679 C 5.737 18.502,4.422 10.223,4.438 10.156 C 4.447 10.116,5.696 10.865,7.520 12.006 C 9.206 13.060,10.676 13.947,10.786 13.977 C 11.033 14.043,11.368 13.965,11.604 13.786 C 11.708 13.707,12.543 12.422,13.871 10.298 C 15.027 8.447,15.985 6.933,16.000 6.933 C 16.015 6.933,16.973 8.447,18.129 10.298 M9.627 22.582 C 9.002 22.859,8.818 23.679,9.269 24.177 C 9.508 24.442,10.029 24.557,10.383 24.423 C 10.862 24.243,11.112 23.661,10.937 23.132 C 10.780 22.654,10.104 22.370,9.627 22.582 M15.627 22.589 C 15.094 22.828,14.867 23.442,15.123 23.947 C 15.460 24.612,16.428 24.666,16.840 24.043 C 17.040 23.740,17.048 23.255,16.857 22.977 C 16.577 22.568,16.046 22.401,15.627 22.589 M21.627 22.582 C 21.002 22.859,20.818 23.679,21.269 24.177 C 21.508 24.442,22.029 24.557,22.383 24.423 C 22.862 24.243,23.112 23.661,22.937 23.132 C 22.780 22.654,22.104 22.370,21.627 22.582 M4.880 23.013 C 4.851 23.023,4.761 23.045,4.681 23.063 C 4.463 23.111,4.178 23.388,4.079 23.649 C 4.004 23.845,3.994 24.050,4.011 24.967 C 4.030 25.940,4.045 26.085,4.153 26.359 C 4.412 27.015,4.980 27.582,5.647 27.852 L 5.947 27.973 15.840 27.988 C 22.587 27.997,25.819 27.984,26.003 27.946 C 26.685 27.805,27.401 27.270,27.701 26.678 C 27.950 26.186,28.000 25.875,28.000 24.814 C 28.000 23.772,27.964 23.579,27.717 23.316 C 27.279 22.846,26.475 22.950,26.142 23.519 C 26.006 23.751,26.000 23.796,25.981 24.720 C 25.971 25.248,25.938 25.724,25.910 25.778 C 25.773 26.036,26.144 26.027,16.000 26.027 C 5.809 26.027,6.229 26.038,6.084 25.768 C 6.050 25.705,6.026 25.324,6.025 24.844 C 6.024 23.678,5.927 23.366,5.502 23.153 C 5.305 23.054,4.979 22.980,4.880 23.013 " fill="#1A1C1F" stroke="none" fill-rule="evenodd"></path></svg>
